X:31
T:Rose Rose
M:4/4
L:1/4
%%MIDI program 56
K:Dmin
"^1" D2 C2| D2 A,2|"^2" DD EE| FG E2|
w:Rose, Rose, Rose, Rose, Will I ev-er see thee wed?
"^3" AA GA| FG/F/ EA,|"^4" D2 CE| D4 ||
w:I will mar-ry at thy_ will, sir, At thy_ will.

